!! 00000] TT[00
!! NN
!!!OTL: Mo chao mian
!!!ARE: Asia, China,ÿNingxia, Yanchi
!! Ethnic Group: Han
!! I, 195, 1)
!!!SCT: C0056
!!!YEM: Copyright 1995, estate of Helmut Schaffrath.
**kern
*ICvox
*Ivox
*M2/4
*k[b-e-]
*B-:
{8.ccc
16ccc
8bb-
8gg
=1
4ff
4ccc
=2
8.fff
16ddd
8ccc
8bb-
=3
4.ff
16dd
16ff}
=4
{8.fff
16ddd
8ccc
16ccc
16bb-
=5
4gg
8.ccc
16ddd
=6
8ccc
16ccc
16bb-
8gg
8bb-
=7
2ff}
==
!!!AGN: Xiaodiao. Laodong yu aiqing
!! Variante zu I, 125
!!!ONB: ESAC (Essen Associative Code) Database: CHINA
!!!AMT: simple duple
!!!AIN: vox
!!!EED: Helmut Schaffrath
!!!EEV: 1.0
*-
